icons/intestine.svg

<svg width="48" height="48" viewBox="0 0 48 48" fill="none" xmlns="http://www.w3.org/2000/svg">
<path fill-rule="evenodd" clip-rule="evenodd" d="M24 4C24.5523 4 25 4.44772 25 5V8.45455C25 8.79457 24.942 9.13383 24.8268 9.45399C24.7117 9.77416 24.54 10.0734 24.3158 10.3316C24.0913 10.59 23.8172 10.8038 23.5047 10.9529C23.1915 11.1023 22.8497 11.1818 22.5002 11.1818H20.2589L20.2389 11.1816C19.0077 11.157 17.7858 11.656 16.8135 12.6284C15.8397 13.6023 15.1911 14.9802 15.0243 16.5086C14.9542 17.3448 15.0364 18.1876 15.2642 18.9816C15.493 19.7789 15.8618 20.5037 16.3404 21.1118C16.8187 21.7196 17.394 22.195 18.0235 22.5164C18.2493 22.6316 18.7551 22.7627 19.4071 22.8613C20.0262 22.9549 20.6417 23 21.0004 23C21.5527 23.0001 22.0004 23.4478 22.0003 24.0001C22.0003 24.5524 21.5525 25.0001 21.0002 25C20.5214 25 19.804 24.944 19.1082 24.8388C18.4452 24.7386 17.654 24.5733 17.1141 24.2976C16.2123 23.8372 15.4153 23.1703 14.7687 22.3487C14.1223 21.5274 13.6385 20.5674 13.3417 19.5331C13.045 18.4988 12.9402 17.4074 13.0325 16.3274L13.0346 16.3056C13.2443 14.3561 14.0749 12.5388 15.3992 11.2143C16.7248 9.88855 18.457 9.14858 20.2684 9.18182H22.5002C22.5445 9.18182 22.5928 9.17199 22.6436 9.14777C22.695 9.12325 22.7515 9.0826 22.8056 9.02026C22.86 8.95768 22.9093 8.87605 22.9448 8.7771C22.9804 8.67813 23 8.56818 23 8.45455V5C23 4.44772 23.4477 4 24 4Z" fill="black"/>
<path fill-rule="evenodd" clip-rule="evenodd" d="M14.1141 23.7024C15.0167 23.2416 16.0003 23.0001 17.0002 23C17.5525 22.9999 18.0003 23.4476 18.0003 23.9999C18.0004 24.5522 17.5527 24.9999 17.0004 25C16.3252 25.0001 15.6523 25.1626 15.0235 25.4836C14.394 25.805 13.8187 26.2804 13.3404 26.8882C12.8618 27.4963 12.493 28.2211 12.2642 29.0184C12.0364 29.8124 11.9542 30.6552 12.0243 31.4914C12.1911 33.0198 12.8397 34.3977 13.8135 35.3716C14.2229 35.7811 14.9525 36.1621 15.8381 36.4358C16.708 36.7047 17.6014 36.8311 18.2389 36.8184L18.2589 36.8182H22.5002C22.8497 36.8182 23.1915 36.8977 23.5047 37.0471C23.8172 37.1962 24.0913 37.41 24.3158 37.6684C24.54 37.9266 24.7117 38.2258 24.8268 38.546C24.942 38.8662 25 39.2054 25 39.5455V43C25 43.5523 24.5523 44 24 44C23.4477 44 23 43.5523 23 43V39.5455C23 39.4318 22.9804 39.3219 22.9448 39.2229C22.9093 39.124 22.86 39.0423 22.8056 38.9797C22.7515 38.9174 22.695 38.8767 22.6436 38.8522C22.5928 38.828 22.5445 38.8182 22.5002 38.8182H18.2684C17.3844 38.8344 16.2814 38.6662 15.2474 38.3466C14.2251 38.0306 13.14 37.5266 12.3992 36.7857C11.0749 35.4612 10.2443 33.6439 10.0346 31.6944L10.0325 31.6726C9.9402 30.5926 10.045 29.5012 10.3417 28.4669C10.6385 27.4326 11.1223 26.4726 11.7687 25.6513C12.4153 24.8297 13.2123 24.1628 14.1141 23.7024Z" fill="black"/>
<path fill-rule="evenodd" clip-rule="evenodd" d="M31.003 4C31.5553 4 32.003 4.44772 32.003 5V10.1816C32.0032 11.2022 31.8288 12.2156 31.4874 13.1646C31.146 14.1136 30.6426 14.9842 30.0001 15.7236C29.8265 15.9234 29.6267 16.1314 29.4094 16.3366C31.0698 16.4329 32.8619 16.7241 34.3796 17.5088C35.4115 18.0423 36.3328 18.8116 36.9897 19.9065C37.6456 20.9998 38.0001 22.3544 38.0001 24C38.0001 25.6409 37.6565 26.992 37.018 28.0838C36.3779 29.1785 35.4774 29.9506 34.4633 30.4869C32.9265 31.2998 31.1003 31.5847 29.419 31.6719C29.6227 31.8662 29.8159 32.0693 29.9975 32.2784C31.2915 33.7689 31.999 35.7633 31.9986 37.8182V43C31.9986 43.5523 31.5509 44 30.9986 44C30.4463 44 29.9986 43.5523 29.9986 43V37.8182C29.9989 36.2098 29.443 34.6904 28.4873 33.5896C27.4766 32.4255 26.2032 31.7066 24.9995 31.7059C24.4474 31.7056 24 31.2578 24.0001 30.7056C24.0003 30.1534 24.4479 29.7059 25.0001 29.7059H27.9972C29.9752 29.7059 32.0095 29.5222 33.5282 28.719C34.2659 28.3288 34.8675 27.7994 35.2916 27.0742C35.7173 26.3462 36.0001 25.3591 36.0001 24C36.0001 22.6456 35.7106 21.662 35.2747 20.9354C34.8397 20.2105 34.2212 19.6783 33.4611 19.2854C31.8984 18.4774 29.8138 18.2941 27.8153 18.2941H24.8182C24.266 18.294 23.8182 17.8462 23.8182 17.294C23.8183 16.7417 24.266 16.2941 24.8182 16.2941H24.8209C25.4559 16.2939 26.089 16.1502 26.6855 15.8659C27.2539 15.595 27.9926 14.9848 28.4904 14.4119C28.9628 13.8681 29.3437 13.2152 29.6055 12.4876C29.8673 11.7599 30.0032 10.9761 30.003 10.182V5C30.003 4.44772 30.4507 4 31.003 4Z" fill="black"/>
<path fill-rule="evenodd" clip-rule="evenodd" d="M16 24C16 23.4477 16.4479 23 17.0002 23H30C30.5523 23 31 23.4477 31 24C31 24.5523 30.5523 25 30 25H17.0004C16.4481 25 16 24.5523 16 24Z" fill="black"/>
<path fill-rule="evenodd" clip-rule="evenodd" d="M22 17.2942C22 16.7419 22.4477 16.2942 23 16.2942H25C25.5523 16.2942 26 16.7419 26 17.2942C26 17.8464 25.5523 18.2942 25 18.2942H23C22.4477 18.2942 22 17.8464 22 17.2942Z" fill="black"/>
<path fill-rule="evenodd" clip-rule="evenodd" d="M17 30.7058C17 30.1536 17.4477 29.7058 18 29.7058L25.0001 29.7059C25.5524 29.7059 26 30.1536 26 30.7058C26 31.2581 25.5518 31.7059 24.9995 31.7059L18 31.7058C17.4477 31.7058 17 31.2581 17 30.7058Z" fill="black"/>
</svg>

<svg
  xmlns="http://www.w3.org/2000/svg"
  width="24"
  height="24"
  viewBox="0 0 24 24"
  fill="none"
  stroke="currentColor"
  stroke-width="2"
  stroke-linecap="round"
  stroke-linejoin="round"
>
  <path
    fill-rule="evenodd"
    d="M24 4a1 1 0 0 1 1 1v3.455c0 .34-.058.679-.173.999s-.287.62-.511.878a2.5 2.5 0 0 1-.811.62 2.3 2.3 0 0 1-1.005.23H20.24c-1.231-.025-2.453.474-3.425 1.446-.974.974-1.623 2.352-1.79 3.88-.07.837.012 1.68.24 2.474a6.2 6.2 0 0 0 1.076 2.13 5.1 5.1 0 0 0 1.683 1.404c.226.116.732.247 1.384.345.62.094 1.235.139 1.593.139a1 1 0 1 1 0 2c-.479 0-1.196-.056-1.892-.161-.663-.1-1.454-.266-1.994-.541a7.1 7.1 0 0 1-2.345-1.95 8.2 8.2 0 0 1-1.427-2.815 8.9 8.9 0 0 1-.31-3.206l.003-.021c.21-1.95 1.04-3.767 2.364-5.092 1.326-1.325 3.058-2.065 4.87-2.032H22.5q.067.001.144-.034a.5.5 0 0 0 .162-.128.8.8 0 0 0 .139-.243A1 1 0 0 0 23 8.455V5a1 1 0 0 1 1-1"
    clip-rule="evenodd"
  />
  <path
    fill-rule="evenodd"
    d="M14.114 23.702A6.34 6.34 0 0 1 17 23a1 1 0 1 1 0 2c-.675 0-1.348.163-1.976.484a5.1 5.1 0 0 0-1.684 1.404 6.2 6.2 0 0 0-1.076 2.13 6.9 6.9 0 0 0-.24 2.473c.167 1.529.816 2.907 1.79 3.88.409.41 1.139.791 2.024 1.065.87.269 1.763.395 2.4.382H22.5c.35 0 .692.08 1.005.23.312.148.586.362.81.62.225.259.397.558.512.878s.173.66.173 1V43a1 1 0 1 1-2 0v-3.455a1 1 0 0 0-.055-.322.8.8 0 0 0-.14-.243.5.5 0 0 0-.161-.128.3.3 0 0 0-.144-.034h-4.232c-.884.016-1.987-.152-3.02-.471-1.023-.316-2.108-.82-2.849-1.561-1.324-1.325-2.155-3.142-2.364-5.092l-.002-.021a8.9 8.9 0 0 1 .309-3.206 8.2 8.2 0 0 1 1.427-2.816 7.1 7.1 0 0 1 2.345-1.949"
    clip-rule="evenodd"
  />
  <path
    fill-rule="evenodd"
    d="M31.003 4a1 1 0 0 1 1 1v5.182c0 1.02-.174 2.034-.516 2.983A8 8 0 0 1 30 15.724q-.263.302-.59.613c1.66.096 3.452.387 4.97 1.172 1.031.533 1.953 1.303 2.61 2.398C37.646 21 38 22.354 38 24c0 1.64-.343 2.992-.982 4.084-.64 1.095-1.54 1.867-2.555 2.403-1.537.813-3.363 1.098-5.044 1.185q.306.292.578.606c1.294 1.49 2.002 3.485 2.002 5.54V43a1 1 0 1 1-2 0v-5.182c0-1.608-.556-3.128-1.512-4.228-1.01-1.165-2.284-1.883-3.487-1.884a1 1 0 0 1 0-2h2.997c1.978 0 4.013-.184 5.531-.987.738-.39 1.34-.92 1.764-1.645.425-.728.708-1.715.708-3.074 0-1.354-.29-2.338-.725-3.065-.435-.724-1.054-1.257-1.814-1.65-1.563-.808-3.647-.99-5.646-.99h-2.997a1 1 0 0 1 0-2h.003c.635-.001 1.268-.145 1.864-.43.569-.27 1.308-.88 1.805-1.453a6.1 6.1 0 0 0 1.116-1.924 6.8 6.8 0 0 0 .397-2.306V5a1 1 0 0 1 1-1"
    clip-rule="evenodd"
  />
  <path
    fill-rule="evenodd"
    d="M16 24a1 1 0 0 1 1-1h13a1 1 0 1 1 0 2H17a1 1 0 0 1-1-1"
    clip-rule="evenodd"
  />
  <path
    fill-rule="evenodd"
    d="M22 17.294a1 1 0 0 1 1-1h2a1 1 0 1 1 0 2h-2a1 1 0 0 1-1-1"
    clip-rule="evenodd"
  />
  <path
    fill-rule="evenodd"
    d="M17 30.706a1 1 0 0 1 1-1h7a1 1 0 1 1 0 2h-7a1 1 0 0 1-1-1"
    clip-rule="evenodd"
  />
</svg>
